X: 52
T:Spootiskerry
M:4/4
L:1/8
C:Ian Burns
O:Shetland
K:G
DE|"G"G2 DE GDEG|"G"DEGA "D"B2 AB|"G"G2 DE GABd|"C"eged "D"B2 AB|"G"G2 D
E
GDEG|"G"DEGA B2 AB|"C"g2 ed "D"edBA|"G"B2 G2 G2:||ef|"G"g2 ed ed B2|"C
"BABG"Em"E2 DE|"G"GABd "Em"eged|"D"B2 A2 A2 ef|"G"g2 ed ed B2|"C"BA
BG"D"E2 DE|"G"GABd "D"eged|"G"B2 G2 G2 ef|"G"g2 ed ed B2|"C"BABG"D"
E2 DE|"G"GABd "Em"eged|"D"B2 A2 A2 DE|"G"G2 DE GDEG|"G"DEGA "D"B2 AB|"C"
g2 ed "D"edBA|"G"B2 G2 G2||

